X:1
T:Title
L:1/8
M:4/4
K:Eb
V:1 treble nm="Grand Piano"
V:1
 z4 z2 z[Q:1/4=100] B | G2 GF G2 A2 | G2 F2 E2 B,B, | E2 EF G2 GA | B2 c2 B3 B | F2 G2 A2 FF | %6
 G2 A2 B2 EE | A2 GG F2 CD |[M:7/8] E2 G F E3 |[M:1/8] E |[M:4/4] B2 Bc B2 GG | A2 c2 B3 B | %12
 B2 Bc B2 AG | A2 B2 A3 A | F2 FG A2 AG | A2 B2 A3 A | F2 BB B2 AG | AGAB G3 G | E2 EE A2 AA | %19
 B2 c2 A3 A | c2 ee d2 c2 | c4 B3 B | G2 GA B2 c2 | A2 B2 G3 G | B2 AA G2 FE | F2 G2 F4 |] %26

